X: 1168
T: Polska efter Torsten Rantzén
R: Polska
Z: Håkan Lidén, 2009-02-08
O: Ångermanland
S: efter Torsten Rantzén
N: Torsten Rantzén är möjligen bara upptecknaren
N: [[http://www.smus.se/earkiv/fmk/browselarge.php?lang=sw&katalogid=Svldiv+2%3A68&bildnr=00003|SMUS]]
M: 3/4
L: 1/8
K: Gdor
G>B d>^c d/e/^f/g/ | g>^f d>^c (3de=f | fg/f/ ec cd |d>B G2 G>B | 
Bc/B/ A^F D/F/A/F/ | ^FG G2 D2 | G>B d>^c d/e/^f/g/ | g>^f d>^c (3de=f | 
fg/f/ ec cd |d>B G2 G>B | Bc/B/ A^F D/F/A/F/ | ^FG G4 :: G>B d>c A>B | 
G>^F G>B (3AFA | G>B d>c A>B | G>^F G>B (3AFA | G>B d>^c d/e/^f/g/ | 
g>^f d>^c (3de=f | fg/f/ ec cd |d>B G2 G>B | Bc/B/ A^F D/F/A/F/ | ^FG G4 :|]
(:musicend:)
Förspel:
(:music:)
